X:124
T:Duke of York March. JGi.124
M:C
L:1/8
Q:
S:Joshua Gibbons MS,1823,Tealby,Lincs.
R:march
O:Tealby,Lincolnshire
Z:VMP/R.Greig, 2009
K:C
C2C>CE2E>E|GEGEC2G>G|cGcG cGEC|G2G>GG2z2|
g2e2c2c2|d2d>fe2zg|g3 e ecfe|d2d>dd2:|
G2G>GG2 Gdef|G2G>G Gceg|(fd).d.d (ec).c.c|
(agfe)”tr”e2d2|c3(e/d/) cGAB|(BA)A4B/c/d/e/|
ffee ddcc|d2d>dd2z2|C2C>CE2E>E|GEGEC2f2|
(dgge) (fdcB)|c2c>cc2z2::”Trio”G3B AGAF|G2B2G2B2|
B3d cBcA|B2d2B2d2|d3gg3d|e3fg2fe|d2(gd) (dc) (cB)|
(B4A2)::A3B cBcA|B2d2g2b2|A3B cBcA|B2G>G2z2|
e2fg2fe|d3gg3b|a2g2a2f2|g2g>gg2″DC”z2:|

